build/img/icon-git.svg

<svg width="69" height="70" viewBox="0 0 69 70" fill="none" xmlns="http://www.w3.org/2000/svg">
  <path d="M67.6988 31.4292L37.5727 1.30418C35.8388 -0.430822 33.0249 -0.430822 31.2889 1.30418L25.033 7.56012L32.9689 15.4961C34.813 14.8729 36.9277 15.291 38.3978 16.761C39.8748 18.2405 40.2899 20.3733 39.6516 22.2234L47.2996 29.8718C49.1499 29.2343 51.2849 29.6467 52.7627 31.127C54.8282 33.1917 54.8282 36.538 52.7627 38.604C50.6968 40.6702 47.3505 40.6702 45.2835 38.604C43.7299 37.0487 43.3461 34.7671 44.1326 32.8531L37.0002 25.7207L36.9994 44.4904C37.5165 44.746 37.9887 45.0837 38.3978 45.4903C40.4632 47.555 40.4632 50.9016 38.3978 52.9692C36.3318 55.0344 32.9839 55.0344 30.921 52.9692C28.8555 50.9016 28.8555 47.5553 30.921 45.4906C31.4159 44.9954 32.0041 44.6032 32.6516 44.3367V25.3921C32.0032 25.1274 31.4146 24.735 30.921 24.2382C29.3561 22.6754 28.9798 20.3793 29.7816 18.4577L21.9588 10.6339L1.30184 31.2898C-0.433946 33.0264 -0.433946 35.8407 1.30184 37.5759L31.4285 67.7015C33.1629 69.4368 35.9763 69.4368 37.7129 67.7015L67.6986 37.7158C69.4338 35.98 69.4338 33.1642 67.6986 31.4292" fill="#DE4C36"/>
</svg>

<svg width="69" height="70" fill="none" xmlns="http://www.w3.org/2000/svg"><path d="M67.699 31.43L37.573 1.303a4.444 4.444 0 00-6.284 0L25.033 7.56l7.936 7.936a5.275 5.275 0 016.683 6.727l7.648 7.649a5.286 5.286 0 015.463 8.732 5.287 5.287 0 01-8.63-5.75L37 25.72v18.77a5.288 5.288 0 11-4.348-.154V25.392a5.222 5.222 0 01-1.731-1.154 5.286 5.286 0 01-1.14-5.78l-7.822-7.824L1.302 31.29a4.445 4.445 0 000 6.286L31.429 67.7a4.444 4.444 0 006.284 0l29.986-29.985a4.447 4.447 0 000-6.287" fill="#DE4C36"/></svg>
